svgs/unable-to-display-light.svg

<svg width="400" height="400" viewBox="0 0 400 400" fill="none" xmlns="http://www.w3.org/2000/svg">
<g id="unable-to-display">
<g id="unable to display">
<g id="Frame 1">
<g id="Group 3">
<g id="empty-search">
<path id="Path" d="M201.749 67.0488C201.749 59.2605 195.451 52.8701 187.553 52.8701H37.196C29.3982 52.8701 23 59.1606 23 67.0488V294.506C23 302.294 29.2982 308.685 37.196 308.685H328.114C335.911 308.685 342.31 302.394 342.31 294.506V95.4061C342.31 87.6178 336.011 81.2274 328.114 81.2274H215.845C208.148 81.2274 201.749 74.9369 201.749 67.0488Z" fill="#F0F3F5"/>
<path id="Oval" fill-rule="evenodd" clip-rule="evenodd" d="M347.407 71.5435C357.787 71.5435 366.202 63.1391 366.202 52.7717C366.202 42.4044 357.787 34 347.407 34C337.027 34 328.613 42.4044 328.613 52.7717C328.613 63.1391 337.027 71.5435 347.407 71.5435Z" stroke="#999999" stroke-width="4" stroke-linecap="round" stroke-linejoin="round"/>
<path id="Shape" d="M362.318 65.4338C361.536 64.6532 360.27 64.654 359.489 65.4355C358.709 66.2171 358.709 67.4834 359.491 68.264L362.318 65.4338ZM374.587 83.3412C375.368 84.1218 376.634 84.121 377.415 83.3395C378.196 82.558 378.195 81.2917 377.413 80.5111L374.587 83.3412ZM98.6784 126.958C98.6784 125.854 97.783 124.958 96.6784 124.958C95.5739 124.958 94.6784 125.854 94.6784 126.958H98.6784ZM94.6784 135.645C94.6784 136.75 95.5739 137.645 96.6784 137.645C97.783 137.645 98.6784 136.75 98.6784 135.645H94.6784ZM98.6784 155.216C98.6784 154.111 97.783 153.216 96.6784 153.216C95.5739 153.216 94.6784 154.111 94.6784 155.216H98.6784ZM94.6784 166.099C94.6784 167.204 95.5739 168.099 96.6784 168.099C97.783 168.099 98.6784 167.204 98.6784 166.099H94.6784ZM116.274 148.529C117.378 148.529 118.274 147.633 118.274 146.529C118.274 145.424 117.378 144.529 116.274 144.529V148.529ZM107.476 144.529C106.371 144.529 105.476 145.424 105.476 146.529C105.476 147.633 106.371 148.529 107.476 148.529V144.529ZM85.7818 148.529C86.8863 148.529 87.7818 147.633 87.7818 146.529C87.7818 145.424 86.8863 144.529 85.7818 144.529V148.529ZM77.0842 144.529C75.9797 144.529 75.0842 145.424 75.0842 146.529C75.0842 147.633 75.9797 148.529 77.0842 148.529V144.529ZM359.491 68.264L374.587 83.3412L377.413 80.5111L362.318 65.4338L359.491 68.264ZM94.6784 126.958V135.645H98.6784V126.958H94.6784ZM94.6784 155.216V166.099H98.6784V155.216H94.6784ZM116.274 144.529H107.476V148.529H116.274V144.529ZM85.7818 144.529H77.0842V148.529H85.7818V144.529Z" fill="#999999"/>
<g id="Group">
<path id="Path_2" fill-rule="evenodd" clip-rule="evenodd" d="M269.831 366H76.4856C66.4885 366 58.2908 357.812 58.2908 347.827V222.616C58.2908 212.631 66.4885 204.443 76.4856 204.443H269.831C279.828 204.443 288.026 212.631 288.026 222.616V347.827C288.026 357.812 279.828 366 269.831 366Z" stroke="#999999" stroke-width="4" stroke-linecap="round" stroke-linejoin="round"/>
<path id="Oval_2" d="M76.9854 227.91C79.8565 227.91 82.1839 225.585 82.1839 222.717C82.1839 219.85 79.8565 217.525 76.9854 217.525C74.1143 217.525 71.7869 219.85 71.7869 222.717C71.7869 225.585 74.1143 227.91 76.9854 227.91Z" fill="#999999"/>
<path id="Oval_3" d="M93.8792 227.91C96.7503 227.91 99.0777 225.585 99.0777 222.717C99.0777 219.85 96.7503 217.525 93.8792 217.525C91.0081 217.525 88.6807 219.85 88.6807 222.717C88.6807 225.585 91.0081 227.91 93.8792 227.91Z" fill="#999999"/>
<path id="Oval_4" d="M110.777 227.91C113.648 227.91 115.975 225.585 115.975 222.717C115.975 219.85 113.648 217.525 110.777 217.525C107.906 217.525 105.578 219.85 105.578 222.717C105.578 225.585 107.906 227.91 110.777 227.91Z" fill="#999999"/>
<path id="Path_3" d="M58.49 241.188H287.325" stroke="#999999" stroke-width="4" stroke-linecap="round" stroke-linejoin="round"/>
</g>
<g id="Group_2">
<path id="Path_4" d="M158.262 130.055V288.517C158.262 328.457 176.457 331.552 184.655 331.552C192.853 331.552 345.709 327.358 345.709 327.358C345.709 327.358 322.016 311.682 322.016 275.037V103.795L187.654 99.4016L158.262 130.055Z" fill="#FFD493"/>
<path id="Shape_2" fill-rule="evenodd" clip-rule="evenodd" d="M185.155 130.656L158.262 130.057L187.954 99.5032V127.761C187.954 129.358 186.654 130.656 185.155 130.656ZM209.146 307.791C209.146 307.791 209.946 327.661 184.653 331.555C197.747 331.555 236.074 330.385 272.247 329.282C304.567 328.295 335.167 327.361 344.508 327.361C364.303 327.361 368.201 303.298 368.201 303.298L209.146 307.791Z" fill="#FFBE5C"/>
</g>
</g>
<path id="Shape_3" d="M269.09 174.893L248.963 196.765L228.52 174.788L209.447 195.195L230.101 217.172L209.447 239.672L228.52 259.66L248.963 237.16L269.09 258.614L287.425 238.207L267.509 216.753L287.425 194.881L269.09 174.893Z" fill="#DD7E10"/>
</g>
</g>
</g>
</g>
</svg>

<svg xmlns="http://www.w3.org/2000/svg" width="400" height="400" fill="none" viewBox="0 0 400 400"><path fill="#F0F3F5" d="M201.749 67.049c0-7.789-6.298-14.179-14.196-14.179H37.196C29.398 52.87 23 59.16 23 67.05v227.457c0 7.788 6.298 14.179 14.196 14.179h290.918c7.797 0 14.196-6.291 14.196-14.179v-199.1c0-7.788-6.299-14.179-14.196-14.179H215.845c-7.697 0-14.096-6.29-14.096-14.178"/><path stroke="#999" stroke-linecap="round" stroke-linejoin="round" stroke-width="4" d="M347.407 71.544c10.38 0 18.795-8.405 18.795-18.772 0-10.368-8.415-18.772-18.795-18.772s-18.794 8.404-18.794 18.772 8.414 18.771 18.794 18.771" clip-rule="evenodd"/><path fill="#999" d="M362.318 65.434a2 2 0 0 0-2.827 2.83zm12.269 17.907a2 2 0 1 0 2.826-2.83zM98.678 126.958a2 2 0 0 0-4 0zm-4 8.687a2 2 0 1 0 4 0zm4 19.571a2 2 0 1 0-4 0zm-4 10.883a2 2 0 1 0 4 0zm21.596-17.57a2 2 0 0 0 0-4zm-8.798-4a2 2 0 1 0 0 4zm-21.694 4a2 2 0 0 0 0-4zm-8.698-4a2 2 0 1 0 0 4zm282.407-76.265 15.096 15.077 2.826-2.83-15.095-15.077zM94.678 126.958v8.687h4v-8.687zm0 28.258v10.883h4v-10.883zm21.596-10.687h-8.798v4h8.798zm-30.492 0h-8.698v4h8.698z"/><path stroke="#999" stroke-linecap="round" stroke-linejoin="round" stroke-width="4" d="M269.831 366H76.486c-9.998 0-18.195-8.188-18.195-18.173V222.616c0-9.985 8.198-18.173 18.195-18.173H269.83c9.997 0 18.195 8.188 18.195 18.173v125.211c0 9.985-8.198 18.173-18.195 18.173" clip-rule="evenodd"/><path fill="#999" d="M76.985 227.91a5.196 5.196 0 0 0 5.199-5.193 5.196 5.196 0 0 0-5.199-5.192 5.196 5.196 0 0 0-5.198 5.192 5.196 5.196 0 0 0 5.198 5.193m16.895 0a5.196 5.196 0 0 0 5.198-5.193 5.196 5.196 0 0 0-5.199-5.192 5.196 5.196 0 0 0-5.198 5.192 5.196 5.196 0 0 0 5.198 5.193m16.898 0a5.195 5.195 0 0 0 5.198-5.193 5.195 5.195 0 0 0-5.198-5.192 5.196 5.196 0 0 0-5.199 5.192 5.196 5.196 0 0 0 5.199 5.193"/><path stroke="#999" stroke-linecap="round" stroke-linejoin="round" stroke-width="4" d="M58.49 241.188h228.835"/><path fill="#FFD493" d="M158.262 130.055v158.462c0 39.94 18.195 43.035 26.393 43.035s161.054-4.194 161.054-4.194-23.693-15.676-23.693-52.321V103.795l-134.362-4.393z"/><path fill="#FFBE5C" fill-rule="evenodd" d="m185.155 130.656-26.893-.599 29.692-30.554v28.258c0 1.597-1.3 2.895-2.799 2.895m23.991 177.135s.8 19.87-24.493 23.764c13.094 0 51.421-1.17 87.594-2.273 32.32-.987 62.92-1.921 72.261-1.921 19.795 0 23.693-24.063 23.693-24.063z" clip-rule="evenodd"/><path fill="#DD7E10" d="m269.09 174.893-20.127 21.872-20.443-21.977-19.073 20.407 20.654 21.977-20.654 22.5 19.073 19.988 20.443-22.5 20.127 21.454 18.335-20.407-19.916-21.454 19.916-21.872z"/></svg>
